packages/components/Atoms/Icon/assets/img/rpl_icon_phone_number.svg

<svg width="14" height="14" viewBox="0 0 14 14" overflow="visible" xmlns="http://www.w3.org/2000/svg">
  <path fill-rule="evenodd" clip-rule="evenodd" d="M13.7383 10.6808L11.4212 8.35068C11.0707 7.99766 10.499 7.99766 10.1485 8.34889L8.0893 10.4069L3.59525 5.91543L5.65712 3.85477C6.00766 3.50444 6.00855 2.93582 5.65802 2.58459L3.33908 0.263422C2.98765 -0.0878074 2.4187 -0.0878074 2.06727 0.263422L0.00359525 2.32499L0 2.32229C0 8.77198 5.23108 14 11.6845 14L13.7365 11.9492C14.0871 11.598 14.088 11.0321 13.7383 10.6808Z"
    fill="inherit" />
</svg>

<svg width="14" height="14" overflow="visible" xmlns="http://www.w3.org/2000/svg"><path fill-rule="evenodd" clip-rule="evenodd" d="M13.738 10.68l-2.317-2.33a.899.899 0 00-1.272-.001l-2.06 2.058-4.494-4.492 2.062-2.06a.899.899 0 00.001-1.27L3.339.263a.9.9 0 00-1.272 0L.004 2.325 0 2.322C0 8.772 5.231 14 11.684 14l2.053-2.05a.897.897 0 00.001-1.27z" fill="inherit"/></svg>
